svg/u1f577.svg

<svg viewBox="0 0 128 128" xmlns="http://www.w3.org/2000/svg">
  <path d="M55.21,63.46l20.4,0.22c0,0,1.94,2.01,3.72,0.07c1.79-1.94,11.91-12.06,13.25-13.4 c1.34-1.34,3.28-3.5,5.06-3.5s9.23,5.88,12.66,8.56c2.44,1.91,8.64,7.3,10.27,7.74c1.64,0.45,5.66,1.19,5.66,2.98 s-5.66,1.19-7.3,1.04s-11.17-6.55-12.66-7.45c-1.49-0.89-6.11-4.39-7-4.39s-13.7,12.58-13.7,12.58s8.04-2.83,10.27-3.72 c2.23-0.89,4.62-1.94,5.81-1.79c1.19,0.15,9.53,9.38,10.87,10.57c1.34,1.19,5.66,5.36,6.85,6.11c1.19,0.74,8.64,3.87,7.74,5.81 s-10.05-0.98-11.57-1.74c-1.79-0.89-6.55-4.17-9.43-7.35c-0.78-0.86-4.77-5.06-6.11-5.36c-1.34-0.3-15.64,5.29-15.64,5.29 s10.13-0.67,11.76,0.22c1.64,0.89,6.4,11.35,7.3,13.48c1.19,2.83,4.91,11.84,6.11,13.33c1.19,1.49,5.66,5.36,4.32,7.15 c-1.34,1.79-7.07-2.61-8.12-4.1c-1.04-1.49-4.64-5.73-9.56-15.11c-1.59-3.04-3.62-7.15-4.52-7.74c-0.89-0.6-9.68,0.89-9.68,0.89 s-0.89,7-0.6,9.23c0.3,2.23,4.32,20.55,5.06,24.27c0.74,3.72,0.74,5.51-0.6,5.96c-1.34,0.45-2.98-1.04-4.77-5.21 c-0.89-2.08-6.2-17.13-6.92-19.13c-1.34-3.72-0.97-10.05-0.97-10.05l-29.56-4.91c0,0-3.8,0.15-4.39,1.19 c-0.6,1.04-3.35,13.55-4.1,16.08c-0.74,2.53-6.18,12.51-6.78,13.25c-0.6,0.74-2.04,2.94-3.72,1.04c-1.19-1.34,1.19-4.77,1.94-7.59 c0,0,1.94-4.47,2.23-7.3c0.3-2.83,2.32-19.44,3.13-20.55c1.19-1.64,5.36-3.28,5.36-3.28s-3.05-1.19-4.91-1.86 c-1.33-0.48-3.87-1.34-4.17-1.27c-0.78,0.19-5.51,7.89-7.45,10.57s-8.79,10.27-9.68,10.87c-0.89,0.6-3.13,1.64-4.02-0.15 c-0.89-1.79,1.49-3.13,2.83-4.91c1.34-1.79,6.55-9.68,8.19-12.51s6.25-12.06,7.74-12.66c1.49-0.6,11.02,3.87,11.02,3.87 s-5.36-4.42-7.59-6.2c-2.23-1.79-4-4.49-5.16-4.07s-6.6,5.73-8.98,7.67s-8.17,5.73-9.98,6.48c-2.16,0.89-4.02,0.3-4.32-0.89 s3.87-4.02,7-6.7s7.1-7.53,9.23-9.6c2.68-2.61,5.21-5.3,6.55-6.28c2.58-1.89,17.57,12.91,17.57,12.91s-7.89-11.02-9.53-13.25 c-1.64-2.23-2.98-4.91-3.42-5.96c-0.45-1.04-0.89-3.13,0.74-4.32c1.64-1.19,3.87-1.19,6.25,2.08c1.93,2.65,16.68,22.63,16.68,22.63 L55.21,63.46z" fill="#868686"/>
  <path d="M77.05,65.2c0,0,14.99-12.41,14.79-28.49s-12.15-23.4-21.24-23.92c-10.32-0.6-25.61,6.75-26.31,23.92 c-0.69,17.17,6.75,26.31,6.75,26.31s-8.14,1.69-9.83,11.71c-1,5.95,1.76,17.96,15.69,20.15c17.67,2.78,24.79-10.4,24.22-19.56 C80.72,68.97,77.05,65.2,77.05,65.2z" fill="#616569"/>
  <path d="M61.83,57.5c3.71,0.09,6.64,0.63,8.93,1.71c5.48,2.58,7.24,7.01,6.68,6.78 c-1.24-0.52-6.01-5.34-16.73-5.44c-5.77-0.05-9.53,2.68-10.27,2.61C49.81,63.1,55.28,57.35,61.83,57.5z" fill="#4E4D50"/>
  <path d="M66.13,49.1c-0.06,0-0.11,0-0.17-0.01c-0.75-0.09-1.29-0.78-1.19-1.53l0.5-3.97 c0.09-0.75,0.78-1.28,1.53-1.19c0.75,0.09,1.29,0.78,1.19,1.53l-0.5,3.97C67.4,48.59,66.81,49.1,66.13,49.1z" fill="#888A8A"/>
  <path d="M76.48,52c-0.17-0.01-0.34-0.06-0.5-0.13c-0.68-0.33-0.97-1.15-0.64-1.84l2.01-4.13 c0.33-0.68,1.16-0.97,1.84-0.64c0.68,0.33,0.97,1.15,0.64,1.84l-2.01,4.13C77.57,51.76,77.03,52.05,76.48,52z" fill="#888A8A"/>
  <path d="M55.4,49.3c-0.66,0-1.24-0.47-1.35-1.14l-0.69-4.07c-0.13-0.75,0.38-1.46,1.12-1.59 c0.75-0.13,1.46,0.37,1.59,1.12l0.69,4.07c0.13,0.75-0.38,1.46-1.12,1.59C55.56,49.29,55.48,49.3,55.4,49.3z" fill="#888A8A"/>
  <path d="M61.26,35c-0.74,0-1.35-0.59-1.37-1.34l-0.1-3.87c-0.02-0.76,0.58-1.39,1.34-1.41 c0.78,0.01,1.39,0.58,1.41,1.34l0.1,3.87c0.02,0.76-0.58,1.39-1.34,1.41C61.29,35,61.27,35,61.26,35z" fill="#888A8A"/>
  <path d="M74.47,36.59c-0.11,0-0.23-0.01-0.34-0.04c-0.74-0.19-1.18-0.94-0.99-1.67l1.09-4.27 c0.19-0.74,0.93-1.18,1.67-0.99c0.74,0.19,1.18,0.94,0.99,1.67l-1.09,4.27C75.64,36.18,75.08,36.59,74.47,36.59z" fill="#888A8A"/>
  <ellipse cx="53.5" cy="75.62" fill="#050402" rx="4.47" ry="3.73" transform="matrix(0.1063 -0.9943 0.9943 0.1063 -27.3768 120.7793)"/>
  <ellipse cx="66.31" cy="77.21" fill="#050402" rx="3.73" ry="4.47"/>
  <ellipse cx="73.66" cy="75.29" fill="#050402" rx="2.5" ry="3.39" transform="matrix(0.9948 -0.1016 0.1016 0.9948 -7.2674 7.8721)"/>
  <ellipse cx="46.78" cy="71.89" fill="#050402" rx="3.39" ry="2.5" transform="matrix(0.1995 -0.9799 0.9799 0.1995 -32.9987 103.3898)"/>
</svg>

<svg viewBox="0 0 128 128" xmlns="http://www.w3.org/2000/svg">
  <defs/>
  <path d="M55.21,63.46 L75.61,63.68 C75.61,63.68 77.55,65.69 79.33,63.75 C81.12,61.81 91.24,51.69 92.58,50.35 C93.92,49.01 95.86,46.85 97.64,46.85 C99.42,46.85 106.87,52.73 110.3,55.41 C112.74,57.32 118.94,62.71 120.57,63.15 C122.21,63.6 126.23,64.34 126.23,66.13 C126.23,67.92 120.57,67.32 118.93,67.17 C117.29,67.02 107.76,60.62 106.27,59.72 C104.78,58.83 100.16,55.33 99.27,55.33 C98.38,55.33 85.57,67.91 85.57,67.91 C85.57,67.91 93.61,65.08 95.84,64.19 C98.07,63.3 100.46,62.25 101.65,62.4 C102.84,62.55 111.18,71.78 112.52,72.97 C113.86,74.16 118.18,78.33 119.37,79.08 C120.56,79.82 128.01,82.95 127.11,84.89 C126.21,86.83 117.06,83.91 115.54,83.15 C113.75,82.26 108.99,78.98 106.11,75.8 C105.33,74.94 101.34,70.74 100,70.44 C98.66,70.14 84.36,75.73 84.36,75.73 C84.36,75.73 94.49,75.06 96.12,75.95 C97.76,76.84 102.52,87.3 103.42,89.43 C104.61,92.26 108.33,101.27 109.53,102.76 C110.72,104.25 115.19,108.12 113.85,109.91 C112.51,111.7 106.78,107.3 105.73,105.81 C104.69,104.32 101.09,100.08 96.17,90.7 C94.58,87.66 92.55,83.55 91.65,82.96 C90.76,82.36 81.97,83.85 81.97,83.85 C81.97,83.85 81.08,90.85 81.37,93.08 C81.67,95.31 85.69,113.63 86.43,117.35 C87.17,121.07 87.17,122.86 85.83,123.31 C84.49,123.76 82.85,122.27 81.06,118.1 C80.17,116.02 74.86,100.97 74.14,98.97 C72.8,95.25 73.17,88.92 73.17,88.92 L43.61,84.01 C43.61,84.01 39.81,84.16 39.22,85.2 C38.62,86.24 35.87,98.75 35.12,101.28 C34.38,103.81 28.94,113.79 28.34,114.53 C27.74,115.27 26.3,117.47 24.62,115.57 C23.43,114.23 25.81,110.8 26.56,107.98 C26.56,107.98 28.5,103.51 28.79,100.68 C29.09,97.85 31.11,81.24 31.92,80.13 C33.11,78.49 37.28,76.85 37.28,76.85 C37.28,76.85 34.23,75.66 32.37,74.99 C31.04,74.51 28.5,73.65 28.2,73.72 C27.42,73.91 22.69,81.61 20.75,84.29 C18.81,86.97 11.96,94.56 11.07,95.16 C10.18,95.76 7.94,96.8 7.05,95.01 C6.16,93.22 8.54,91.88 9.88,90.1 C11.22,88.31 16.43,80.42 18.07,77.59 C19.71,74.76 24.32,65.53 25.81,64.93 C27.3,64.33 36.83,68.8 36.83,68.8 C36.83,68.8 31.47,64.38 29.24,62.6 C27.01,60.81 25.24,58.11 24.08,58.53 C22.92,58.95 17.48,64.26 15.1,66.2 C12.72,68.14 6.93,71.93 5.12,72.68 C2.96,73.57 1.1,72.98 0.8,71.79 C0.5,70.6 4.67,67.77 7.8,65.09 C10.93,62.41 14.9,57.56 17.03,55.49 C19.71,52.88 22.24,50.19 23.58,49.21 C26.16,47.32 41.15,62.12 41.15,62.12 C41.15,62.12 33.26,51.1 31.62,48.87 C29.98,46.64 28.64,43.96 28.2,42.91 C27.75,41.87 27.31,39.78 28.94,38.59 C30.58,37.4 32.81,37.4 35.19,40.67 C37.12,43.32 51.87,63.3 51.87,63.3 L55.21,63.46 Z" fill="#868686"/>
  <path d="M77.05,65.2 C77.05,65.2 92.04,52.79 91.84,36.71 C91.64,20.63 79.69,13.31 70.6,12.79 C60.28,12.19 44.99,19.54 44.29,36.71 C43.6,53.88 51.04,63.02 51.04,63.02 C51.04,63.02 42.9,64.71 41.21,74.73 C40.21,80.68 42.97,92.69 56.9,94.88 C74.57,97.66 81.69,84.48 81.12,75.32 C80.72,68.97 77.05,65.2 77.05,65.2 Z" fill="#616569"/>
  <path d="M61.83,57.5 C65.54,57.59 68.47,58.13 70.76,59.21 C76.24,61.79 78,66.22 77.44,65.99 C76.2,65.47 71.43,60.65 60.71,60.55 C54.94,60.5 51.18,63.23 50.44,63.16 C49.81,63.1 55.28,57.35 61.83,57.5 Z" fill="#4E4D50"/>
  <path d="M66.13,49.1 C66.07,49.1 66.02,49.1 65.96,49.09 C65.21,49 64.67,48.31 64.77,47.56 L65.27,43.59 C65.36,42.84 66.05,42.31 66.8,42.4 C67.55,42.49 68.09,43.18 67.99,43.93 L67.49,47.9 C67.4,48.59 66.81,49.1 66.13,49.1 Z" fill="#888A8A"/>
  <path d="M76.48,52 C76.31,51.99 76.14,51.94 75.98,51.87 C75.3,51.54 75.01,50.72 75.34,50.03 L77.35,45.9 C77.68,45.22 78.51,44.93 79.19,45.26 C79.87,45.59 80.16,46.41 79.83,47.1 L77.82,51.23 C77.57,51.76 77.03,52.05 76.48,52 Z" fill="#888A8A"/>
  <path d="M55.4,49.3 C54.74,49.3 54.16,48.83 54.05,48.16 L53.36,44.09 C53.23,43.34 53.74,42.63 54.48,42.5 C55.23,42.37 55.94,42.87 56.07,43.62 L56.76,47.69 C56.89,48.44 56.38,49.15 55.64,49.28 C55.56,49.29 55.48,49.3 55.4,49.3 Z" fill="#888A8A"/>
  <path d="M61.26,35 C60.52,35 59.91,34.41 59.89,33.66 L59.79,29.79 C59.77,29.03 60.37,28.4 61.13,28.38 C61.91,28.39 62.52,28.96 62.54,29.72 L62.64,33.59 C62.66,34.35 62.06,34.98 61.3,35 C61.29,35 61.27,35 61.26,35 Z" fill="#888A8A"/>
  <path d="M74.47,36.59 C74.36,36.59 74.24,36.58 74.13,36.55 C73.39,36.36 72.95,35.61 73.14,34.88 L74.23,30.61 C74.42,29.87 75.16,29.43 75.9,29.62 C76.64,29.81 77.08,30.56 76.89,31.29 L75.8,35.56 C75.64,36.18 75.08,36.59 74.47,36.59 Z" fill="#888A8A"/>
  <path d="M53.974,71.178 C56.023,71.397 57.47,73.565 57.208,76.019 C56.946,78.474 55.072,80.286 53.024,80.067 C50.976,79.848 49.528,77.681 49.79,75.226 C50.053,72.772 51.926,70.959 53.974,71.178 Z" fill="#050402"/>
  <path d="M70.04,77.21 A3.73 4.47 0 1 1 62.58,77.21 A3.73 4.47 0 1 1 70.04,77.21 Z" fill="#050402"/>
  <path d="M76.146,75.033 C76.336,76.895 75.377,78.519 74.003,78.659 C72.63,78.799 71.362,77.403 71.172,75.541 C70.982,73.678 71.941,72.055 73.315,71.914 C74.688,71.774 75.956,73.17 76.146,75.033 Z" fill="#050402"/>
  <path d="M47.455,68.57 C48.808,68.846 49.602,70.556 49.229,72.391 C48.855,74.225 47.456,75.489 46.103,75.214 C44.75,74.939 43.956,73.228 44.329,71.393 C44.703,69.559 46.102,68.295 47.455,68.57 Z" fill="#050402"/>
</svg>
